src/22/actions/category2parent.svg

<svg xmlns="http://www.w3.org/2000/svg" viewBox="0 0 22 22"><path d="M3 3v16h9v-1H4V7h14v5h1V3h-2v3h-2V3H7v3H5V3H3zm10 10v6h6v-6h-1v1h-1v-1h-2v1h-1v-1h-1zm1 2h4v3h-4v-3z" fill="currentColor" color="#5d656b"/><path d="M6 9v6h6V9h-1v1h-1V9H8v1H7V9H6zm1 2h4v3H7v-3z" fill="currentColor" color="#3daee9"/></svg>

<svg xmlns="http://www.w3.org/2000/svg" viewBox="0 0 22 22">
  <defs id="defs3051">
    <style type="text/css" id="current-color-scheme">
      .ColorScheme-Text {
        color:#5d656b;
      }
      .ColorScheme-Highlight {
        color:#3daee9;
      }
      </style>
  </defs>
 <path 
     style="fill:currentColor;fill-opacity:1;stroke:none" 
     d="M 3 3 L 3 19 L 12 19 L 12 18 L 4 18 L 4 7 L 18 7 L 18 12 L 19 12 L 19 3 L 17 3 L 17 6 L 15 6 L 15 3 L 7 3 L 7 6 L 5 6 L 5 3 L 3 3 z M 13 13 L 13 14 L 13 19 L 19 19 L 19 14 L 19 13 L 18 13 L 18 14 L 17 14 L 17 13 L 15 13 L 15 14 L 14 14 L 14 13 L 13 13 z M 14 15 L 18 15 L 18 18 L 14 18 L 14 15 z "
     class="ColorScheme-Text"
     />
 <path 
     style="fill:currentColor;fill-opacity:1;stroke:none" 
     d="M 6 9 L 6 10 L 6 15 L 12 15 L 12 10 L 12 9 L 11 9 L 11 10 L 10 10 L 10 9 L 8 9 L 8 10 L 7 10 L 7 9 L 6 9 z M 7 11 L 11 11 L 11 14 L 7 14 L 7 11 z "
     class="ColorScheme-Highlight"
     />
</svg>
